!!!COM: Schubert, Franz
!!!CNT: Deutscher
!!!TXO: Deutsch
!!!OTL: "Die Kraehe"
!!!OPR: Winterreise
!!!LYR: Mu2ller, Wilhelm
!!!OPS: Opus 89
!!!ONM: No. 15 
!!!ODT: 1827/
!!NB: Vocal melody only encoded.
**kern	**silbe
*clefG2	*
*k[b-e-a-]	*
*M2/4	*
*MM[langsam]	*
=6	=6
{8cc	{Ei-
8bn	-ne
8cc	Kra2-
8g	-he
=7	=7
8b-	war
8a-	mit
4g}	mir}
=8	=8
{8f	aus
8a-	der
8g	Stadt
8f	ge-
=9	=9
8e-	-zo-
8d	|
8c}	-gen,}
8r	.
=10	=10
{8cc	{ist
8bn	bis
8cc	heu-
8g	-te
=11	=11
8b-	fu2r
8a-	und
4g}	fu2r}
=12	=12
{8f	{um
8a-	mein
8g	Haupt
8cc	ge-
=13	=13
4b-	-flo-
8e-}	-gen.}
8r	.
=16	=16
{(16cc	{Kra2-
16b-)	|
8b-	-he,
4r	.
=17	=17
16.cc	wun-
32b-	-der-
16b-	-lich-
16b-	-es
8g}	Thier,}
8r	.
=18	=18
{8b-	{willst
8bn	mich
8.cc	nicht
16b-	ver-
=19	=19
(16dd	-las-
16cc)	|
8cc}	-sen?}
4r	.
=20	=20
{(16dd	{Meinst
16cc)	|
8cc	wohl
8r	.
16cc	bald
16cc	als
=21	=21
8.dd	Beu-
16cc	-te
8an}	hier}
8r	.
=22	=22
{8cc	{mei-
8cc#	-nen
8.dd	Leib
16cc#	zu
=23	=23
(16een	fas-
16dd)	|
8dd}	-sen?}
4r	.
=25	=25
{8cc	{Nun
8bn	es
8cc	wird
8g	nicht
=26	=26
8b-	weit
8a-	mehr
4g}	geh'n}
=27	=27
{8f	{an
8a-	dem
8g	Wan-
8f	-der-
=28	=28
8e-	-sta-
8d	|
8c}	-be.}
8r	.
=29	=29
{8.c	{Kra2-
16c	-he,
8.c	lass'
16c	mich
=30	=30
8cc	end-
8dd-	-lich
4cc}	seh'n}
=31	=31
{8cc	{Treu-
8ddn	-e
8ee-	bis
8ff	zum
=32	=32
2gg	Gra-
=33	=33
4een}	-be!}
4r	.
=34	=34
{8.c	{Kra2-
16c	-he,
8.c	lass'
16c	mich
=35	=35
8cc	end-
8dd-	-lich
4cc}	seh'n}
=36	=36
{8.cc	{Treu-
16c	-e
8c	bis
8c	zum
=37	=37
2g	Gra-
=38	=38
4c}	-be!}
4r	.
*-	*-
